Suru++/mimetypes/scalable/text-rust.svg

<svg width="256" height="256" viewBox="0 0 256 256" fill="none" xmlns="http://www.w3.org/2000/svg">
<g opacity="0.4" filter="url(#filter0_f)">
<path d="M55.0839 15.5636H155.608L216.009 75.7129L216.011 224.609C216.011 233.52 208.749 240.737 199.838 240.737H55.0838C46.1734 240.737 39 233.564 39 224.654V31.6474C39 22.737 46.1734 15.5636 55.0838 15.5636H55.0839Z" fill="black"/>
</g>
<path d="M55.0839 15H155.608L216.009 75.1493L216.011 224.045C216.011 232.956 208.749 240.174 199.838 240.174H55.0838C46.1734 240.174 39 233 39 224.09V31.0838C39 22.1734 46.1734 15 55.0838 15H55.0839Z" fill="#ECECEC"/>
<path fill-rule="evenodd" clip-rule="evenodd" d="M155.609 22.9787H55.0839C50.58 22.9787 46.9787 26.5799 46.9787 31.0838V224.09C46.9787 228.594 50.5799 232.195 55.0838 232.195H199.838C204.371 232.195 208.032 228.521 208.032 224.046V75.1493L155.609 22.9787ZM155.608 15H55.0839C46.1735 15 39 22.1734 39 31.0838V224.09C39 233 46.1734 240.174 55.0838 240.174H199.838C208.749 240.174 216.011 232.956 216.011 224.045L216.009 75.1493L155.608 15Z" fill="url(#paint0_linear)"/>
<path d="M124.116 68L120.043 76.013C117.298 76.4317 114.59 77.0636 111.943 77.903L104.797 72.5L97.545 76.073L97.485 85.038C95.4179 86.4578 93.4554 88.0242 91.6126 89.725L82.883 87.881L77.5506 94.619L81.4769 102.647C80.4201 104.579 79.4858 106.575 78.6797 108.624L69.9191 110.614L68.015 119.434L75.0455 124.942C74.9668 125.96 74.9181 126.981 74.8995 128.002C74.9035 129.037 74.9375 130.06 75.0005 131.092L68 136.57L69.9501 145.389L78.6497 147.365C79.4741 149.406 80.4285 151.393 81.5069 153.312L77.5666 161.366L82.898 168.119L91.6426 166.259C93.4765 167.978 95.4302 169.565 97.489 171.007L97.549 179.957L104.756 183.53L111.904 178.127C114.562 178.948 117.28 179.56 120.033 179.957L124.091 187.94L131.883 188L135.956 179.987C138.701 179.568 141.409 178.936 144.056 178.097L151.203 183.5L158.455 179.927L158.515 170.962C160.582 169.542 162.545 167.976 164.387 166.275L173.117 168.119L178.449 161.381L174.523 153.353C175.58 151.421 176.514 149.425 177.32 147.376L186.081 145.386L187.985 136.566L180.955 131.058C181.033 130.038 181.082 129.022 181.101 127.998C181.097 126.967 181.063 125.937 181 124.908L188 119.43L186.05 110.611L177.35 108.635C176.526 106.594 175.572 104.607 174.493 102.688L178.433 94.634L173.102 87.881L164.357 89.741C162.524 88.0219 160.57 86.4352 158.511 84.993L158.451 76.043L151.244 72.47L144.096 77.873C141.438 77.0519 138.72 76.44 135.967 76.043L131.909 68.06L124.117 68H124.116ZM127.997 82.999C152.849 82.999 172.996 103.144 172.996 127.994C172.996 152.844 152.85 172.99 127.997 172.99C103.145 172.99 82.998 152.845 82.998 127.994C82.998 103.144 103.145 82.999 127.997 82.999V82.999Z" fill="url(#paint1_linear)"/>
<path d="M130.397 97.997C147.185 97.997 154.247 105.497 154.247 116.745C154.247 126.745 145.044 131.452 139.997 132.344C144.092 133.416 145.787 137.59 148.021 144.493C149.964 150.493 153.362 150.493 157.996 150.493V157.992H146.746C140.844 157.992 139.828 153.271 137.747 147.492C134.773 139.243 132.489 135.494 125.747 135.494H116.747V150.492H124.248V157.992H97.997V150.492H105.498V105.496H97.997V97.997H130.396H130.397ZM116.747 127.994H129.122C139.247 127.994 141.909 122.212 141.909 116.745C141.909 109.456 137.136 105.496 129.085 105.496H116.747" fill="url(#paint2_linear)"/>
<path opacity="0.25" d="M155.608 17V61.2306C155.608 70.141 162.867 77.1605 171.777 77.1605L216.009 77.1493V75.1493L155.608 17Z" fill="black"/>
<path d="M155.608 15V59.2306C155.608 68.141 162.867 75.1605 171.777 75.1605L216.009 75.1493L155.608 15Z" fill="url(#paint3_linear)"/>
<defs>
<filter id="filter0_f" x="23.8778" y="0.441412" width="207.255" height="255.418" filterUnits="userSpaceOnUse" color-interpolation-filters="sRGB">
<feFlood flood-opacity="0" result="BackgroundImageFix"/>
<feBlend mode="normal" in="SourceGraphic" in2="BackgroundImageFix" result="shape"/>
<feGaussianBlur stdDeviation="7.5611" result="effect1_foregroundBlur"/>
</filter>
<linearGradient id="paint0_linear" x1="127.506" y1="245.178" x2="127.506" y2="15" gradientUnits="userSpaceOnUse">
<stop offset="0.0217391" stop-color="#5B2F00"/>
<stop offset="1" stop-color="#FF8000"/>
</linearGradient>
<linearGradient id="paint1_linear" x1="128" y1="190.667" x2="128" y2="68" gradientUnits="userSpaceOnUse">
<stop offset="0.0217391" stop-color="#5B2F00"/>
<stop offset="1" stop-color="#FF8000"/>
</linearGradient>
<linearGradient id="paint2_linear" x1="127.996" y1="159.325" x2="127.996" y2="97.997" gradientUnits="userSpaceOnUse">
<stop offset="0.0217391" stop-color="#5B2F00"/>
<stop offset="1" stop-color="#FF8000"/>
</linearGradient>
<linearGradient id="paint3_linear" x1="185.808" y1="76.4974" x2="185.808" y2="15" gradientUnits="userSpaceOnUse">
<stop offset="0.0217391" stop-color="#5B2F00"/>
<stop offset="1" stop-color="#FF8000"/>
</linearGradient>
</defs>
</svg>

<svg xmlns="http://www.w3.org/2000/svg" xmlns:xlink="http://www.w3.org/1999/xlink" style="isolation:isolate" width="256" height="256"><switch><g><path d="M78.924 15.5c-35.296 0-39.094 3.625-38.921 38.994v146.012c-.173 35.369 3.625 38.994 38.921 38.994h98.157c35.297 0 38.922-3.625 38.922-38.994V54.494c0-35.369-3.625-38.994-38.922-38.994H78.924z" fill="none" vector-effect="non-scaling-stroke" stroke-width="4" stroke="#000" opacity=".2"/><defs><filter id="a" x="-200%" y="-200%" width="400%" height="400%" filterUnits="objectBoundingBox" color-interpolation-filters="sRGB"><feGaussianBlur xmlns="http://www.w3.org/2000/svg" stdDeviation="2.12"/></filter></defs><path d="M78.924 16.5c-35.296 0-39.094 3.625-38.921 38.994v146.012c-.173 35.369 3.625 38.994 38.921 38.994h98.157c35.297 0 38.003-3.637 38.922-38.994V55.494c0-35.369-3.625-38.994-38.922-38.994H78.924z" opacity=".1" filter="url(#a)"/><defs><filter id="b" x="-200%" y="-200%" width="400%" height="400%" filterUnits="objectBoundingBox" color-interpolation-filters="sRGB"><feGaussianBlur xmlns="http://www.w3.org/2000/svg" stdDeviation="8.48"/></filter></defs><g opacity=".3" filter="url(#b)"><linearGradient id="c" x1="-.068" y1=".031" x2=".954" y2="1.053" gradientTransform="matrix(176.0054 0 0 224 39.997 16.5)" gradientUnits="userSpaceOnUse"><stop offset="0%" stop-opacity=".588"/><stop offset="88%" stop-opacity="0"/><stop offset="100%"/></linearGradient><path d="M78.924 16.5c-35.296 0-39.094 3.625-38.921 38.994v146.012c-.173 35.369 3.625 38.994 38.921 38.994h98.157c35.297 0 38.922-3.625 38.922-38.994V55.494c0-35.369-3.625-38.994-38.922-38.994H78.924z" fill="url(#c)"/></g><path d="M78.924 15.5c-35.296 0-39.094 3.625-38.921 38.994v146.012c-.173 35.369 3.625 38.994 38.921 38.994h98.157c35.297 0 38.922-3.625 38.922-38.994V54.494c0-35.369-3.625-38.994-38.922-38.994H78.924z" fill="#B2542C"/><path d="M78.925 15.5c-35.297 0-39.095 3.626-38.922 38.994v2C39.83 21.126 43.628 17.5 78.925 17.5h98.156c35.297 0 38.922 3.626 38.922 38.994v-2c0-35.368-3.625-38.994-38.922-38.994H78.925z" fill="#FFF" opacity=".6"/><path d="M128.003 15.5v224h49.078c35.297 0 38.003-3.636 38.922-38.993V54.493c0-35.368-3.625-38.993-38.922-38.993h-49.078z" fill="#FFF" opacity=".1"/><path d="M156.003 239.5l60-60v22.484c-.053 33.996-3.803 37.516-38.174 37.516h-21.826z" fill="#FFF" opacity=".2"/><g fill="#FFF"><path d="M124.117 68l-4.072 8.013a53.455 53.455 0 0 0-8.1 1.89L104.8 72.5l-7.252 3.573-.06 8.965a52.399 52.399 0 0 0-5.872 4.687l-8.729-1.844-5.332 6.738 3.926 8.028a52.493 52.493 0 0 0-2.797 5.977l-8.76 1.99-1.904 8.82 7.03 5.508a52.047 52.047 0 0 0-.146 3.06c.004 1.035.038 2.058.101 3.09l-7 5.478 1.95 8.819 8.699 1.976a51.544 51.544 0 0 0 2.857 5.947l-3.94 8.054 5.331 6.753 8.744-1.86a53.063 53.063 0 0 0 5.846 4.748l.06 8.95 7.207 3.573 7.147-5.403a53.315 53.315 0 0 0 8.129 1.83l4.057 7.983 7.792.06 4.072-8.013a53.455 53.455 0 0 0 8.1-1.89l7.146 5.403 7.252-3.573.06-8.965a52.4 52.4 0 0 0 5.872-4.687l8.729 1.844 5.332-6.738-3.926-8.028a52.493 52.493 0 0 0 2.797-5.977l8.76-1.99 1.904-8.82-7.03-5.508c.078-1.02.127-2.036.146-3.06a53.019 53.019 0 0 0-.101-3.09l7-5.478-1.95-8.819-8.699-1.976a51.542 51.542 0 0 0-2.857-5.947l3.94-8.054-5.331-6.753-8.744 1.86a53.062 53.062 0 0 0-5.846-4.748l-.06-8.95-7.207-3.573-7.147 5.403a53.313 53.313 0 0 0-8.129-1.83l-4.057-7.983-7.792-.06zm3.881 14.999c24.85 0 44.996 20.145 44.996 44.995 0 24.85-20.145 44.996-44.996 44.996-24.85 0-44.996-20.145-44.996-44.996 0-24.85 20.146-44.995 44.996-44.995z"/><path d="M130.398 97.997c16.787 0 23.848 7.5 23.848 18.748 0 10-9.202 14.707-14.249 15.599 4.095 1.072 5.79 5.246 8.024 12.149 1.943 6 5.34 6 9.974 6v7.499h-11.249c-5.902 0-6.918-4.721-8.999-10.5-2.973-8.249-5.257-11.998-11.999-11.998h-8.999v14.998h7.5v7.5H98v-7.5h7.5v-44.996H98v-7.499h32.397zm-13.649 29.997h12.374c10.124 0 12.786-5.782 12.786-11.249 0-7.289-4.773-11.249-12.823-11.249h-12.337"/></g></g><foreignObject requiredExtensions="http://ns.gravit.io/"> </foreignObject></switch> </svg>
